src/status/16/renamed-synapse.svg

<svg viewBox="0 0 16 16" xmlns="http://www.w3.org/2000/svg">
 <g transform="matrix(1.3749 0 0 1.3749 -3 -3)" fill="#2e3440" stroke-width=".727">
  <path transform="matrix(.72731 0 0 .72731 2.182 2.184)" d="m7 0v2.0918a6 6 0 0 0-4.6504 3.9082h1.0703a5 5 0 0 1 4.5801-3 5 5 0 0 1 4.5762 3h1.0723a6 6 0 0 0-4.6484-3.9082v-2.0918h-2zm-4.6484 10a6 6 0 0 0 4.6484 3.9082v2.0918h2v-2.0918a6 6 0 0 0 4.6504-3.9082h-1.0703a5 5 0 0 1-4.5801 3 5 5 0 0 1-4.5762-3h-1.0723z" stroke-width="1"/>
 </g>
 <path d="m8 4a4 4 0 0 0-4 4 4 4 0 0 0 0.13281 1h1.3672 0.211 4.578a2.5 2.5 0 0 1-2.289 1.5 2.5 2.5 0 0 1-1.4941-0.5h-1.9649a4 4 0 0 0 3.459 2 4 4 0 0 0 4-4 4 4 0 0 0-0.13281-1h-1.3672-0.211-4.578a2.5 2.5 0 0 1 2.289-1.5 2.5 2.5 0 0 1 1.4941 0.5h1.9649a4 4 0 0 0-3.459-2z" fill="#2e3440"/>
</svg>

<svg xmlns="http://www.w3.org/2000/svg" viewBox="0 0 16 16">
 <g style="fill:#2e3440;fill-opacity:1;stroke-width:0.727" transform="matrix(1.37492 0 0 1.37492 -3 -3)">
  <path style="stroke-width:1" transform="matrix(0.72731 0 0 0.72731 2.182 2.184)" d="M 7 0 L 7 2.0917969 A 6 6 0 0 0 2.3496094 6 L 3.4199219 6 A 5 5 0 0 1 8 3 A 5 5 0 0 1 12.576172 6 L 13.648438 6 A 6 6 0 0 0 9 2.0917969 L 9 0 L 7 0 z M 2.3515625 10 A 6 6 0 0 0 7 13.908203 L 7 16 L 9 16 L 9 13.908203 A 6 6 0 0 0 13.650391 10 L 12.580078 10 A 5 5 0 0 1 8 13 A 5 5 0 0 1 3.4238281 10 L 2.3515625 10 z "/>
 </g>
 <path style="fill:#2e3440;opacity:1;fill-opacity:1;stroke:none;fill-rule:nonzero" d="M 8 4 A 4 4 0 0 0 4 8 4 4 0 0 0 4.132813 9 L 5.5 9 5.711 9 10.289 9 A 2.5 2.5 0 0 1 8 10.5 2.5 2.5 0 0 1 6.505859 10 L 4.541 10 A 4 4 0 0 0 8 12 4 4 0 0 0 12 8 4 4 0 0 0 11.867188 7 L 10.5 7 10.289 7 5.711 7 A 2.5 2.5 0 0 1 8 5.5 2.5 2.5 0 0 1 9.494141 6 L 11.459 6 A 4 4 0 0 0 8 4 z"/>
</svg>
